src/assets/icons/icon_best.svg

<svg width="18" height="18" viewBox="0 0 18 18" fill="none" xmlns="http://www.w3.org/2000/svg">
<g clip-path="url(#clip0_24375_4126)">
<path d="M9.75 2.25C10.3239 2.24997 10.8761 2.46924 11.2937 2.86296C11.7113 3.25668 11.9626 3.79508 11.9963 4.368L12 4.5V7.5H13.5C14.0513 7.49991 14.5835 7.70226 14.9955 8.06864C15.4075 8.43502 15.6707 8.93992 15.735 9.4875L15.7463 9.618L15.75 9.75L15.735 9.897L14.9805 13.671C14.6948 14.8905 13.854 15.768 12.873 15.756L12.75 15.75H6.75C6.5663 15.75 6.389 15.6825 6.25172 15.5605C6.11444 15.4384 6.02674 15.2702 6.00525 15.0878L6 15L6.00075 7.848C6.00089 7.71648 6.0356 7.5873 6.10142 7.47344C6.16724 7.35957 6.26185 7.26501 6.37575 7.19925C6.69557 7.01454 6.96496 6.7539 7.16013 6.44035C7.35529 6.1268 7.47022 5.77001 7.49475 5.4015L7.5 5.25V4.5C7.5 3.90326 7.73705 3.33097 8.15901 2.90901C8.58097 2.48705 9.15326 2.25 9.75 2.25Z" fill="#64748B"/>
<path d="M3.75 7.5C3.9337 7.50002 4.111 7.56747 4.24828 7.68954C4.38556 7.81161 4.47326 7.97981 4.49475 8.16225L4.5 8.25V15C4.49998 15.1837 4.43253 15.361 4.31046 15.4983C4.18839 15.6356 4.02019 15.7233 3.83775 15.7448L3.75 15.75H3C2.62157 15.7501 2.25708 15.6072 1.97959 15.3499C1.7021 15.0926 1.53213 14.7399 1.50375 14.3625L1.5 14.25V9C1.49988 8.62157 1.6428 8.25708 1.90012 7.97959C2.15744 7.7021 2.51013 7.53213 2.8875 7.50375L3 7.5H3.75Z" fill="#64748B"/>
</g>
<defs>
<clipPath id="clip0_24375_4126">
<rect width="18" height="18" fill="white"/>
</clipPath>
</defs>
</svg>

<svg xmlns="http://www.w3.org/2000/svg" fill="none" viewBox="0 0 18 18"><g fill="#64748b" clip-path="url(#a)"><path d="M9.75 2.25a2.25 2.25 0 0 1 2.246 2.118L12 4.5v3h1.5a2.25 2.25 0 0 1 2.235 1.988l.011.13.004.132-.015.147-.755 3.774c-.285 1.22-1.126 2.097-2.107 2.085l-.123-.006h-6a.75.75 0 0 1-.745-.662L6 15V7.848a.75.75 0 0 1 .376-.649 2.25 2.25 0 0 0 1.119-1.797L7.5 5.25V4.5a2.25 2.25 0 0 1 2.25-2.25m-6 5.25a.75.75 0 0 1 .745.662l.005.088V15a.75.75 0 0 1-.662.745l-.088.005H3a1.5 1.5 0 0 1-1.496-1.387L1.5 14.25V9a1.5 1.5 0 0 1 1.388-1.496L3 7.5z"/></g><defs><clipPath id="a"><path fill="#fff" d="M0 0h18v18H0z"/></clipPath></defs></svg>
